src/icons/outline/symbols/hourglass.svg

<svg width="24" height="24" viewBox="0 0 24 24" fill="none" xmlns="http://www.w3.org/2000/svg">
<g clip-path="url(#clip0_402_498)">
<path d="M17.0342 1C18.1168 1.00015 19 1.91508 19 3.03613V5.09082C19 8.32864 16.9425 11.0702 14.1152 12C16.9426 12.9319 19 15.6792 19 18.9092V20.9639C19 22.0849 18.1168 22.9999 17.0342 23H6.96582C5.88317 22.9999 5 22.0849 5 20.9639V18.9092C5 15.6769 7.05027 12.9383 9.87012 12.0039C7.05042 11.067 5 8.32303 5 5.09082V3.03613C5 1.91508 5.88317 1.00015 6.96582 1H17.0342ZM12 13.126C8.92282 13.126 6.42506 15.7122 6.4248 18.8984V20.9541C6.4248 21.2687 6.6715 21.5145 6.96582 21.5146H17.0342C17.338 21.5145 17.5752 21.2589 17.5752 20.9541V18.8984C17.5749 15.7122 15.0772 13.126 12 13.126ZM11.4395 15.041C11.7908 14.7166 12.3223 14.7556 12.6357 15.1191V15.1094L15.4668 18.4141C15.5996 18.5714 15.6758 18.7779 15.6758 18.9941C15.6758 19.4859 15.2955 19.8789 14.8301 19.8789H9.16895C8.96026 19.8788 8.76121 19.8005 8.60938 19.6631C8.25795 19.3484 8.21977 18.7877 8.5332 18.4238L11.3633 15.1191C11.3917 15.0897 11.411 15.0607 11.4395 15.041ZM6.96582 2.47559C6.66201 2.47573 6.4248 2.73135 6.4248 3.03613V5.09082C6.4248 8.27724 8.92266 10.8643 12 10.8643C15.0773 10.8643 17.5752 8.27724 17.5752 5.09082V3.03613C17.5752 2.72152 17.3285 2.47573 17.0342 2.47559H6.96582ZM14.5186 7.34375C14.6609 7.34384 14.8029 7.42207 14.8789 7.55957C14.9549 7.69724 14.9549 7.86427 14.8789 8.00195C14.309 9.14277 13.1976 9.87082 11.9629 9.91016L11.9727 9.91992C10.7476 9.88051 9.62652 9.16294 9.05664 8.04199C8.98066 7.90431 8.98066 7.73632 9.05664 7.59863C9.12315 7.45119 9.25656 7.34375 9.41797 7.34375H14.5186Z" fill="#212121"/>
</g>
<defs>
<clipPath id="clip0_402_498">
<rect width="24" height="24" fill="white"/>
</clipPath>
</defs>
</svg>

<svg xmlns="http://www.w3.org/2000/svg" width="24" height="24" fill="none" viewBox="0 0 24 24"><g clip-path="url(#a)"><path fill="currentColor" d="M17.034 1C18.117 1 19 1.915 19 3.036v2.055c0 3.238-2.058 5.98-4.885 6.909 2.828.932 4.885 3.68 4.885 6.91v2.054c0 1.12-.883 2.036-1.966 2.036H6.966C5.883 23 5 22.085 5 20.964v-2.055c0-3.232 2.05-5.97 4.87-6.905C7.05 11.067 5 8.323 5 5.09V3.036C5 1.916 5.883 1 6.966 1zM12 13.126c-3.077 0-5.575 2.586-5.575 5.772v2.056c0 .315.247.56.54.56h10.07a.55.55 0 0 0 .54-.56v-2.056c0-3.186-2.498-5.772-5.575-5.772m-.56 1.915a.824.824 0 0 1 1.196.078v-.01l2.83 3.305a.9.9 0 0 1 .21.58c0 .492-.38.885-.846.885H9.17a.84.84 0 0 1-.56-.216.896.896 0 0 1-.076-1.24l2.83-3.304c.029-.03.048-.058.077-.078M6.966 2.476a.55.55 0 0 0-.541.56v2.055c0 3.186 2.498 5.773 5.575 5.773s5.575-2.587 5.575-5.773V3.036a.55.55 0 0 0-.54-.56zm7.553 4.868c.142 0 .284.078.36.216a.46.46 0 0 1 0 .442c-.57 1.14-1.681 1.869-2.916 1.908l.01.01a3.41 3.41 0 0 1-2.916-1.878.46.46 0 0 1 0-.443c.066-.148.2-.255.361-.255z"/></g><defs><clipPath id="a"><path fill="currentColor" d="M0 0h24v24H0z"/></clipPath></defs></svg>
